svg/u262a.svg

<svg viewBox="0 0 128 128" xmlns="http://www.w3.org/2000/svg">
  <g>
    <path d="M116.46,3.96h-104c-4.42,0-8,3.58-8,8v104c0,4.42,3.58,8,8,8h104c4.42,0,8-3.58,8-8v-104 C124.46,7.54,120.88,3.96,116.46,3.96z" fill="#8E24AA"/>
    <path d="M110.16,3.96h-98.2c-4.13,0.03-7.47,3.37-7.5,7.5v97.9c-0.01,4.14,3.34,7.49,7.48,7.5 c0.01,0,0.01,0,0.02,0h98.1c4.14,0.01,7.49-3.34,7.5-7.48c0-0.01,0-0.01,0-0.02v-97.9c0.09-4.05-3.13-7.41-7.18-7.5 C110.31,3.96,110.23,3.96,110.16,3.96z" fill="#AB47BC"/>
    <path d="M40.16,12.86c0-2.3-1.6-3-10.8-2.7c-7.7,0.3-11.5,1.2-13.8,4 s-2.9,8.5-3,15.3c0,4.8,0,9.3,2.5,9.3c3.4,0,3.4-7.9,6.2-12.3C26.66,17.76,40.16,15.86,40.16,12.86z" opacity="0.3" fill="#FAFAFA" enable-background="new "/>
    <path d="M72.56,115.96" fill="#FFFFFF"/>
    <path d="M72.66,115.96" fill="#FFFFFF"/>
    <path d="M96.96,48.86l3,9.5c0.19,0.51,0.66,0.86,1.2,0.9l10-0.1c0.71,0,1.29,0.58,1.29,1.29 c0,0.39-0.18,0.76-0.49,1.01l-8.1,5.8c-0.49,0.28-0.7,0.87-0.5,1.4l3.2,9.5c0.23,0.66-0.12,1.39-0.79,1.61 c-0.41,0.14-0.87,0.06-1.21-0.21l-8-5.9c-0.45-0.3-1.05-0.3-1.5,0l-8,5.9c-0.56,0.43-1.36,0.32-1.79-0.24 c-0.25-0.33-0.33-0.77-0.21-1.16l3.2-9.5c0.2-0.53-0.01-1.12-0.5-1.4l-8.3-5.7c-0.57-0.41-0.7-1.2-0.29-1.77 c0.25-0.35,0.66-0.55,1.09-0.53l10,0.1c0.56,0.02,1.06-0.36,1.2-0.9l3-9.5c0.17-0.7,0.87-1.13,1.57-0.96 C96.47,48.11,96.82,48.43,96.96,48.86z" fill="#FFFFFF"/>
    <path d="M72.26,104.16c-22.2,0-40.2-18-40.2-40.2s18-40.2,40.2-40.2c10.41-0.02,20.43,3.95,28,11.1 c0.37,0.34,0.96,0.32,1.3-0.05c0.32-0.35,0.32-0.89,0-1.25c-16.8-20.51-47.04-23.52-67.55-6.73s-23.52,47.04-6.73,67.55 s47.04,23.52,67.55,6.73c2.5-2.05,4.79-4.34,6.83-6.85c0.7-0.9-0.5-2.1-1.3-1.3C92.77,100.16,82.71,104.16,72.26,104.16z" fill="#FAFAFA"/>
  </g>
</svg>

<svg viewBox="0 0 128 128" xmlns="http://www.w3.org/2000/svg">
  <defs/>
  <path d="M116.46,3.96 L12.46,3.96 C8.04,3.96 4.46,7.54 4.46,11.96 L4.46,115.96 C4.46,120.38 8.04,123.96 12.46,123.96 L116.46,123.96 C120.88,123.96 124.46,120.38 124.46,115.96 L124.46,11.96 C124.46,7.54 120.88,3.96 116.46,3.96 Z" fill="#8E24AA"/>
  <path d="M110.16,3.96 L11.96,3.96 C7.83,3.99 4.49,7.33 4.46,11.46 L4.46,109.36 C4.45,113.5 7.8,116.85 11.94,116.86 C11.95,116.86 11.95,116.86 11.96,116.86 L110.06,116.86 C114.2,116.87 117.55,113.52 117.56,109.38 C117.56,109.37 117.56,109.37 117.56,109.36 L117.56,11.46 C117.65,7.41 114.43,4.05 110.38,3.96 C110.31,3.96 110.23,3.96 110.16,3.96 Z" fill="#AB47BC"/>
  <path d="M40.16,12.86 C40.16,10.56 38.56,9.86 29.36,10.16 C21.66,10.46 17.86,11.36 15.56,14.16 C13.26,16.96 12.66,22.66 12.56,29.46 C12.56,34.26 12.56,38.76 15.06,38.76 C18.46,38.76 18.46,30.86 21.26,26.46 C26.66,17.76 40.16,15.86 40.16,12.86 Z" fill="#FAFAFA" opacity="0.3"/>
  <path d="M96.96,48.86 L99.96,58.36 C100.15,58.87 100.62,59.22 101.16,59.26 L111.16,59.16 C111.87,59.16 112.45,59.74 112.45,60.45 C112.45,60.84 112.27,61.21 111.96,61.46 L103.86,67.26 C103.37,67.54 103.16,68.13 103.36,68.66 L106.56,78.16 C106.79,78.82 106.44,79.55 105.77,79.77 C105.36,79.91 104.9,79.83 104.56,79.56 L96.56,73.66 C96.11,73.36 95.51,73.36 95.06,73.66 L87.06,79.56 C86.5,79.99 85.7,79.88 85.27,79.32 C85.02,78.99 84.94,78.55 85.06,78.16 L88.26,68.66 C88.46,68.13 88.25,67.54 87.76,67.26 L79.46,61.56 C78.89,61.15 78.76,60.36 79.17,59.79 C79.42,59.44 79.83,59.24 80.26,59.26 L90.26,59.36 C90.82,59.38 91.32,59 91.46,58.46 L94.46,48.96 C94.63,48.26 95.33,47.83 96.03,48 C96.47,48.11 96.82,48.43 96.96,48.86 Z" fill="#FFFFFF"/>
  <path d="M72.26,104.16 C50.06,104.16 32.06,86.16 32.06,63.96 C32.06,41.76 50.06,23.76 72.26,23.76 C82.67,23.74 92.69,27.71 100.26,34.86 C100.63,35.2 101.22,35.18 101.56,34.81 C101.88,34.46 101.88,33.92 101.56,33.56 C84.76,13.05 54.52,10.04 34.01,26.83 C13.5,43.62 10.49,73.87 27.28,94.38 C44.07,114.89 74.32,117.9 94.83,101.11 C97.33,99.06 99.62,96.77 101.66,94.26 C102.36,93.36 101.16,92.16 100.36,92.96 C92.77,100.16 82.71,104.16 72.26,104.16 Z" fill="#FAFAFA"/>
</svg>
